images/tel-s-icon.svg

<svg width="24" height="24" viewBox="0 0 24 24" fill="none" xmlns="http://www.w3.org/2000/svg">
    <circle cx="12" cy="10" r="5" stroke="#D4E5FB" stroke-width="2"/>
    <circle cx="12" cy="10" r="9" stroke="#D4E5FB" stroke-width="2"/>
    <path fill-rule="evenodd" clip-rule="evenodd" d="M17.6572 2.92864C18.0477 2.53811 18.6808 2.53811 19.0714 2.92864C22.9766 6.83388 22.9766 13.1655 19.0714 17.0707C18.6808 17.4612 18.0477 17.4612 17.6571 17.0707C17.2666 16.6802 17.2666 16.047 17.6571 15.6565C20.7813 12.5323 20.7813 7.46704 17.6572 4.34285C17.2666 3.95233 17.2666 3.31916 17.6572 2.92864ZM13.0428 11.7068C13.6169 11.3553 14 10.7224 14 9.99988C14 8.89531 13.1046 7.99988 12 7.99988C10.8954 7.99988 10 8.89531 10 9.99988C10 10.7222 10.3829 11.3551 10.9568 11.7066C10.937 11.7715 10.9235 11.8393 10.9171 11.9094L10.0989 20.9094C10.0457 21.495 10.5068 21.9999 11.0948 21.9999H12.9047C13.4928 21.9999 13.9539 21.495 13.9006 20.9094L13.0825 11.9094C13.0761 11.8394 13.0627 11.7717 13.0428 11.7068ZM16.2423 5.75774C15.8517 5.36721 15.2186 5.36721 14.828 5.75774C14.4375 6.14826 14.4375 6.78143 14.828 7.17195C16.3901 8.73405 16.3901 11.2668 14.828 12.8289C14.4375 13.2194 14.4375 13.8525 14.828 14.2431C15.2186 14.6336 15.8517 14.6336 16.2423 14.2431C18.5854 11.8999 18.5854 8.10088 16.2423 5.75774ZM6.34315 17.0711C5.95262 17.4616 5.31946 17.4616 4.92894 17.0711C1.02369 13.1659 1.02369 6.83425 4.92894 2.92901C5.31946 2.53848 5.95263 2.53848 6.34315 2.92901C6.73368 3.31953 6.73368 3.9527 6.34315 4.34322C3.21896 7.46742 3.21896 12.5327 6.34315 15.6569C6.73367 16.0474 6.73367 16.6806 6.34315 17.0711ZM7.75736 14.242C8.14788 14.6325 8.78105 14.6325 9.17157 14.242C9.5621 13.8515 9.5621 13.2183 9.17157 12.8278C7.60947 11.2657 7.60947 8.73307 9.17157 7.17097C9.5621 6.78045 9.5621 6.14729 9.17157 5.75676C8.78105 5.36624 8.14788 5.36624 7.75736 5.75676C5.41421 8.09991 5.41421 11.8989 7.75736 14.242Z" fill="#2A7DEC"/>
</svg>

<svg width="24" height="24" fill="none" xmlns="http://www.w3.org/2000/svg"><circle cx="12" cy="10" r="5" stroke="#D4E5FB" stroke-width="2"/><circle cx="12" cy="10" r="9" stroke="#D4E5FB" stroke-width="2"/><path fill-rule="evenodd" clip-rule="evenodd" d="M17.657 2.929a1 1 0 0 1 1.414 0c3.906 3.905 3.906 10.236 0 14.142a1 1 0 0 1-1.414-1.415 8 8 0 0 0 0-11.313 1 1 0 0 1 0-1.414Zm-4.614 8.778A1.999 1.999 0 0 0 12 8a2 2 0 0 0-1.043 3.707c-.02.064-.034.132-.04.202l-.818 9a1 1 0 0 0 .996 1.09h1.81a1 1 0 0 0 .996-1.09l-.819-9a1.001 1.001 0 0 0-.04-.202Zm3.2-5.95a1 1 0 0 0-1.415 1.415 4 4 0 0 1 0 5.657 1 1 0 0 0 1.414 1.414 6 6 0 0 0 0-8.485Zm-9.9 11.314a1 1 0 0 1-1.414 0c-3.905-3.905-3.905-10.237 0-14.142a1 1 0 1 1 1.414 1.414 8 8 0 0 0 0 11.314 1 1 0 0 1 0 1.414Zm1.414-2.829a1 1 0 0 0 1.415-1.414 4 4 0 0 1 0-5.657 1 1 0 1 0-1.415-1.414 6 6 0 0 0 0 8.485Z" fill="#2A7DEC"/></svg>
